X:1
T:Hunters and Gatherers
M:C|
L:1/8
C: Paul Gitlitz 2004
R:Reel
B:Hunters and Gatherers
N:A favourite game.
K:Am
"Am"ac'ag "C"edcd|"F7"^d=dcA- "Am" AAAA|"Am"ac'ag "C"edcd|"E"e8|!
"Am"ac'ag "C"edcd|"F7"^d=dcA- "Am"AAAA|"F"^d=d2"G"c- c AG2|"Am"A8:|!
"Dm" DDFG "A7"^GA2D|"Dm"FDGD "A7"^GA2A|"Dm" DDFG "A7"^GAG=G|
"Dm"FD2"C"[G- [Gc][Gc][Gc][Gc]|!
"Dm" DDFG "A7"^GA2D|"Dm"FDGD "A7"^GA2A|"Dm" DFG^G "A7" AG=GF|"C"EDC2 "E7"B,4:|]
% Written by ABC2Win  2.2.109 on 1/12/2006
